client/resources/iconsets/breeze/src/svg/16x16/icon_task_request.svg

<svg xmlns="http://www.w3.org/2000/svg" width="16" height="16" viewBox="0 0 16 16">
 <path style="fill:#6d6d70"
       d="M 8 0.00390625 C 6.8954 0.00390625 6 0.89933625 6 2.0039062 L 2 2.0039062 C 1 2.0039062 1 3.0039062 1 3.0039062 L 1 14.003906 C 1 15.003906 2 15.003906 2 15.003906 L 14 15.003906 C 14 15.003906 15 15.003906 15 14.003906 L 15 3.0039062 C 15 2.0039061 14 2.0039062 14 2.0039062 L 10 2.0039062 C 10 1.8658365 9.99495 1.7278563 9.96875 1.5976562 C 9.78226 0.68628625 8.9666 0.00390625 8 0.00390625 z M 8 1.0039062 C 8.41421 1.0039062 8.75444 1.2699862 8.90625 1.6289062 C 8.95685 1.7485462 9 1.8658364 9 2.0039062 C 9 2.5561863 8.55229 3.0039063 8 3.0039062 C 7.44771 3.0039062 7 2.5561863 7 2.0039062 C 7 1.4516263 7.44771 1.0039062 8 1.0039062 z M 3 4.0039062 L 5 4.0039062 L 5 5.0039062 L 11 5.0039062 L 11 4.0039062 L 13 4.0039062 L 13 13.003906 L 3 13.003906 L 3 4.0039062 z "
       />
 <path style="fill:#19b5f1"
       d="M 4.5722656 6.0234375 C 4.2556941 6.0234375 4 6.2464375 4 6.5234375 L 4 11.523438 C 4 11.800439 4.2556941 12.023437 4.5722656 12.023438 L 11.427734 12.023438 C 11.744305 12.023438 12 11.800438 12 11.523438 L 12 6.5234375 C 12 6.2464375 11.744305 6.0234375 11.427734 6.0234375 L 4.5722656 6.0234375 z M 5.5371094 7.03125 L 8 8.6484375 L 10.464844 7.03125 L 11.173828 7.8164062 L 8.3417969 9.6738281 C 8.1387079 9.8069501 7.8612941 9.8069501 7.6582031 9.6738281 L 4.9785156 7.9160156 L 4.8261719 7.8164062 L 5.5371094 7.03125 z "
       />
</svg>

<svg xmlns="http://www.w3.org/2000/svg" width="16" height="16"><path d="M8 .004a2 2 0 0 0-2 2H2c-1 0-1 1-1 1v11c0 1 1 1 1 1h12s1 0 1-1v-11c0-1-1-1-1-1h-4c0-.138-.005-.276-.031-.406A2.01 2.01 0 0 0 8 .004zm0 1c.414 0 .754.266.906.625A.94.94 0 0 1 9 2.004a1 1 0 1 1-2 0 1 1 0 0 1 1-1zm-5 3h2v1h6v-1h2v9H3v-9z" fill="#6d6d70"/><path d="M4.572 6.023c-.317 0-.572.223-.572.5v5c0 .277.256.5.572.5h6.855c.317 0 .572-.223.572-.5v-5c0-.277-.256-.5-.572-.5H4.572zm.965 1.008L8 8.648l2.465-1.617.709.785-2.832 1.857c-.203.133-.481.133-.684 0l-2.68-1.758-.152-.1.711-.785z" fill="#19b5f1"/></svg>
